X: 35046
T: Rolling Hills Of Brosna, The
R: reel
M: 4/4
K: Gmajor
GBAG EGDE|G2GA Bddd|gdeg d2BG|AdBG AGED|
G3G EGDE|G2GA Bddd|dgdeg d2BG|1 AdBA G2DE:|2 AdBA G3a||
|:gaba ~g3d|egdg egga|gaba gabg|a2gb a2ba|
gaba ~g3d|egdg egga|gdeg dBGB|1 AGBA G3a:|2 AGBA G2DE||

